images/5459750.svg

<?xml version="1.0" encoding="UTF-8"?>
<svg xmlns="http://www.w3.org/2000/svg" xmlns:xlink="http://www.w3.org/1999/xlink" width="300pt" height="300pt" viewBox="0 0 300 300" version="1.1">
<defs>
<g>
<symbol overflow="visible" id="glyph0-0">
<path style="stroke:none;" d="M 0.546875 1.9375 L 0.546875 -7.75 L 6.046875 -7.75 L 6.046875 1.9375 Z M 1.171875 1.328125 L 5.4375 1.328125 L 5.4375 -7.140625 L 1.171875 -7.140625 Z M 1.171875 1.328125 "/>
</symbol>
<symbol overflow="visible" id="glyph0-1">
<path style="stroke:none;" d="M 1.078125 -8.015625 L 2.546875 -8.015625 L 6.09375 -1.3125 L 6.09375 -8.015625 L 7.15625 -8.015625 L 7.15625 0 L 5.6875 0 L 2.125 -6.703125 L 2.125 0 L 1.078125 0 Z M 1.078125 -8.015625 "/>
</symbol>
<symbol overflow="visible" id="glyph0-2">
<path style="stroke:none;" d="M 4.328125 -7.28125 C 3.546875 -7.28125 2.921875 -6.984375 2.453125 -6.390625 C 1.992188 -5.804688 1.765625 -5.007812 1.765625 -4 C 1.765625 -2.988281 1.992188 -2.1875 2.453125 -1.59375 C 2.921875 -1.007812 3.546875 -0.71875 4.328125 -0.71875 C 5.117188 -0.71875 5.742188 -1.007812 6.203125 -1.59375 C 6.660156 -2.1875 6.890625 -2.988281 6.890625 -4 C 6.890625 -5.007812 6.660156 -5.804688 6.203125 -6.390625 C 5.742188 -6.984375 5.117188 -7.28125 4.328125 -7.28125 Z M 4.328125 -8.171875 C 5.453125 -8.171875 6.351562 -7.789062 7.03125 -7.03125 C 7.707031 -6.28125 8.046875 -5.269531 8.046875 -4 C 8.046875 -2.738281 7.707031 -1.726562 7.03125 -0.96875 C 6.351562 -0.21875 5.453125 0.15625 4.328125 0.15625 C 3.203125 0.15625 2.300781 -0.21875 1.625 -0.96875 C 0.957031 -1.71875 0.625 -2.726562 0.625 -4 C 0.625 -5.269531 0.957031 -6.28125 1.625 -7.03125 C 2.300781 -7.789062 3.203125 -8.171875 4.328125 -8.171875 Z M 4.328125 -8.171875 "/>
</symbol>
<symbol overflow="visible" id="glyph0-3">
<path style="stroke:none;" d="M 1.078125 -8.015625 L 2.171875 -8.015625 L 2.171875 -4.734375 L 6.109375 -4.734375 L 6.109375 -8.015625 L 7.1875 -8.015625 L 7.1875 0 L 6.109375 0 L 6.109375 -3.8125 L 2.171875 -3.8125 L 2.171875 0 L 1.078125 0 Z M 1.078125 -8.015625 "/>
</symbol>
</g>
</defs>
<g id="surface47653">
<rect x="0" y="0" width="300" height="300" style="fill:rgb(100%,100%,100%);fill-opacity:1;stroke:none;"/>
<path style="fill:none;stroke-width:1;stroke-linecap:butt;stroke-linejoin:miter;stroke:rgb(0%,0%,0%);stroke-opacity:1;stroke-miterlimit:10;" d="M 105.363281 95.144531 L 105.363281 95.144531 M 103.480469 92.808594 L 102.796875 93.59375 M 101.601562 90.46875 L 100.226562 92.039062 M 99.722656 88.132812 L 97.660156 90.488281 M 97.839844 85.796875 L 95.09375 88.933594 M 95.960938 83.457031 L 92.527344 87.382812 M 94.078125 81.121094 L 89.960938 85.828125 M 92.199219 78.78125 L 87.394531 84.277344 M 90.316406 76.445312 L 84.828125 82.722656 M 88.714844 74.453125 L 82.636719 81.402344 "/>
<path style="fill:none;stroke-width:1.2;stroke-linecap:butt;stroke-linejoin:miter;stroke:rgb(0%,0%,0%);stroke-opacity:1;stroke-miterlimit:10;" d="M 105.363281 95.144531 L 130.863281 89.339844 "/>
<path style="fill:none;stroke-width:1.2;stroke-linecap:butt;stroke-linejoin:miter;stroke:rgb(0%,0%,100%);stroke-opacity:1;stroke-miterlimit:10;" d="M 103.003906 121.191406 L 104.183594 108.167969 "/>
<path style="fill:none;stroke-width:1.2;stroke-linecap:butt;stroke-linejoin:miter;stroke:rgb(0%,0%,0%);stroke-opacity:1;stroke-miterlimit:10;" d="M 104.183594 108.167969 L 105.363281 95.144531 "/>
<path style="fill:none;stroke-width:1.2;stroke-linecap:butt;stroke-linejoin:miter;stroke:rgb(0%,0%,0%);stroke-opacity:1;stroke-miterlimit:10;" d="M 130.863281 89.339844 L 144.265625 111.796875 "/>
<path style="fill:none;stroke-width:1.2;stroke-linecap:butt;stroke-linejoin:miter;stroke:rgb(0%,0%,0%);stroke-opacity:1;stroke-miterlimit:10;" d="M 126.917969 94.738281 L 137.640625 112.707031 "/>
<path style="fill:none;stroke-width:1.2;stroke-linecap:butt;stroke-linejoin:miter;stroke:rgb(0%,0%,0%);stroke-opacity:1;stroke-miterlimit:10;" d="M 144.265625 111.796875 L 127.046875 131.484375 "/>
<path style="fill:none;stroke-width:1.2;stroke-linecap:butt;stroke-linejoin:miter;stroke:rgb(0%,0%,0%);stroke-opacity:1;stroke-miterlimit:10;" d="M 127.046875 131.484375 L 115.023438 126.339844 "/>
<path style="fill:none;stroke-width:1.2;stroke-linecap:butt;stroke-linejoin:miter;stroke:rgb(0%,0%,100%);stroke-opacity:1;stroke-miterlimit:10;" d="M 115.023438 126.339844 L 103.003906 121.191406 "/>
<path style=" stroke:none;fill-rule:nonzero;fill:rgb(0%,0%,0%);fill-opacity:1;" d="M 127.046875 131.484375 L 110.269531 152.070312 L 118.328125 156.570312 Z M 127.046875 131.484375 "/>
<path style="fill:none;stroke-width:1.2;stroke-linecap:butt;stroke-linejoin:miter;stroke:rgb(0%,0%,0%);stroke-opacity:1;stroke-miterlimit:10;" d="M 127.046875 131.484375 L 148.425781 146.550781 "/>
<path style="fill:none;stroke-width:1.2;stroke-linecap:butt;stroke-linejoin:miter;stroke:rgb(0%,0%,100%);stroke-opacity:1;stroke-miterlimit:10;" d="M 103.003906 121.191406 L 91.773438 127.894531 "/>
<path style="fill:none;stroke-width:1.2;stroke-linecap:butt;stroke-linejoin:miter;stroke:rgb(0%,0%,0%);stroke-opacity:1;stroke-miterlimit:10;" d="M 91.773438 127.894531 L 80.542969 134.59375 "/>
<path style=" stroke:none;fill-rule:nonzero;fill:rgb(100%,100%,100%);fill-opacity:1;" d="M 99.003906 114.691406 L 107.003906 114.691406 L 107.003906 127.691406 L 99.003906 127.691406 Z M 99.003906 114.691406 "/>
<g style="fill:rgb(0%,0%,100%);fill-opacity:1;">
  <use xlink:href="#glyph0-1" x="99.003906" y="124.592773"/>
</g>
<path style="fill:none;stroke-width:1.2;stroke-linecap:butt;stroke-linejoin:miter;stroke:rgb(0%,0%,0%);stroke-opacity:1;stroke-miterlimit:10;" d="M 77.46875 134.636719 L 77.65625 147.714844 "/>
<path style="fill:none;stroke-width:1.2;stroke-linecap:butt;stroke-linejoin:miter;stroke:rgb(100%,0%,0%);stroke-opacity:1;stroke-miterlimit:10;" d="M 77.65625 147.714844 L 77.84375 160.789062 "/>
<path style="fill:none;stroke-width:1.2;stroke-linecap:butt;stroke-linejoin:miter;stroke:rgb(0%,0%,0%);stroke-opacity:1;stroke-miterlimit:10;" d="M 83.621094 134.550781 L 83.808594 147.625 "/>
<path style="fill:none;stroke-width:1.2;stroke-linecap:butt;stroke-linejoin:miter;stroke:rgb(100%,0%,0%);stroke-opacity:1;stroke-miterlimit:10;" d="M 83.808594 147.625 L 84 160.699219 "/>
<path style="fill:none;stroke-width:1.2;stroke-linecap:butt;stroke-linejoin:miter;stroke:rgb(0%,0%,0%);stroke-opacity:1;stroke-miterlimit:10;" d="M 80.542969 134.59375 L 69.125 128.21875 "/>
<path style="fill:none;stroke-width:1.2;stroke-linecap:butt;stroke-linejoin:miter;stroke:rgb(100%,0%,0%);stroke-opacity:1;stroke-miterlimit:10;" d="M 69.125 128.21875 L 57.707031 121.84375 "/>
<path style=" stroke:none;fill-rule:nonzero;fill:rgb(100%,100%,100%);fill-opacity:1;" d="M 76.921875 154.246094 L 85.921875 154.246094 L 85.921875 167.246094 L 76.921875 167.246094 Z M 76.921875 154.246094 "/>
<g style="fill:rgb(100%,0%,0%);fill-opacity:1;">
  <use xlink:href="#glyph0-2" x="76.921875" y="164.147461"/>
</g>
<path style="fill:none;stroke-width:1.2;stroke-linecap:butt;stroke-linejoin:miter;stroke:rgb(100%,0%,0%);stroke-opacity:1;stroke-miterlimit:10;" d="M 57.707031 121.84375 L 46.480469 128.546875 "/>
<path style="fill:none;stroke-width:1.2;stroke-linecap:butt;stroke-linejoin:miter;stroke:rgb(0%,0%,0%);stroke-opacity:1;stroke-miterlimit:10;" d="M 46.480469 128.546875 L 35.25 135.246094 "/>
<path style=" stroke:none;fill-rule:nonzero;fill:rgb(100%,100%,100%);fill-opacity:1;" d="M 53.707031 115.34375 L 62.707031 115.34375 L 62.707031 128.34375 L 53.707031 128.34375 Z M 53.707031 115.34375 "/>
<g style="fill:rgb(100%,0%,0%);fill-opacity:1;">
  <use xlink:href="#glyph0-2" x="53.707031" y="125.245117"/>
</g>
<path style="fill:none;stroke-width:1.2;stroke-linecap:butt;stroke-linejoin:miter;stroke:rgb(0%,0%,0%);stroke-opacity:1;stroke-miterlimit:10;" d="M 114.296875 154.320312 L 127.699219 176.777344 "/>
<path style="fill:none;stroke-width:1.2;stroke-linecap:butt;stroke-linejoin:miter;stroke:rgb(0%,0%,0%);stroke-opacity:1;stroke-miterlimit:10;" d="M 127.699219 176.777344 L 153.851562 176.402344 "/>
<path style="fill:none;stroke-width:1.2;stroke-linecap:butt;stroke-linejoin:miter;stroke:rgb(0%,0%,0%);stroke-opacity:1;stroke-miterlimit:10;" d="M 130.402344 182.894531 L 151.324219 182.59375 "/>
<path style="fill:none;stroke-width:1.2;stroke-linecap:butt;stroke-linejoin:miter;stroke:rgb(0%,0%,0%);stroke-opacity:1;stroke-miterlimit:10;" d="M 114.949219 199.613281 L 127.699219 176.777344 "/>
<path style="fill:none;stroke-width:1.2;stroke-linecap:butt;stroke-linejoin:miter;stroke:rgb(0%,0%,0%);stroke-opacity:1;stroke-miterlimit:10;" d="M 153.851562 176.402344 L 167.253906 198.859375 "/>
<path style="fill:none;stroke-width:1.2;stroke-linecap:butt;stroke-linejoin:miter;stroke:rgb(0%,0%,0%);stroke-opacity:1;stroke-miterlimit:10;" d="M 167.253906 198.859375 L 154.503906 221.695312 "/>
<path style="fill:none;stroke-width:1.2;stroke-linecap:butt;stroke-linejoin:miter;stroke:rgb(0%,0%,0%);stroke-opacity:1;stroke-miterlimit:10;" d="M 160.605469 198.144531 L 150.40625 216.414062 "/>
<path style="fill:none;stroke-width:1.2;stroke-linecap:butt;stroke-linejoin:miter;stroke:rgb(0%,0%,0%);stroke-opacity:1;stroke-miterlimit:10;" d="M 154.503906 221.695312 L 128.351562 222.074219 "/>
<path style="fill:none;stroke-width:1.2;stroke-linecap:butt;stroke-linejoin:miter;stroke:rgb(0%,0%,0%);stroke-opacity:1;stroke-miterlimit:10;" d="M 128.351562 222.074219 L 114.949219 199.613281 "/>
<path style="fill:none;stroke-width:1.2;stroke-linecap:butt;stroke-linejoin:miter;stroke:rgb(0%,0%,0%);stroke-opacity:1;stroke-miterlimit:10;" d="M 132.296875 216.675781 L 121.574219 198.707031 "/>
<path style="fill:none;stroke-width:1.2;stroke-linecap:butt;stroke-linejoin:miter;stroke:rgb(0%,0%,0%);stroke-opacity:1;stroke-miterlimit:10;" d="M 145.382812 147.023438 L 146.570312 154.652344 "/>
<path style="fill:none;stroke-width:1.2;stroke-linecap:butt;stroke-linejoin:miter;stroke:rgb(100%,0%,0%);stroke-opacity:1;stroke-miterlimit:10;" d="M 146.570312 154.652344 L 147.753906 162.28125 "/>
<path style="fill:none;stroke-width:1.2;stroke-linecap:butt;stroke-linejoin:miter;stroke:rgb(0%,0%,0%);stroke-opacity:1;stroke-miterlimit:10;" d="M 151.464844 146.078125 L 152.652344 153.707031 "/>
<path style="fill:none;stroke-width:1.2;stroke-linecap:butt;stroke-linejoin:miter;stroke:rgb(100%,0%,0%);stroke-opacity:1;stroke-miterlimit:10;" d="M 152.652344 153.707031 L 153.835938 161.339844 "/>
<path style="fill:none;stroke-width:1.2;stroke-linecap:butt;stroke-linejoin:miter;stroke:rgb(0%,0%,0%);stroke-opacity:1;stroke-miterlimit:10;" d="M 148.425781 146.550781 L 160.292969 141.058594 "/>
<path style="fill:none;stroke-width:1.2;stroke-linecap:butt;stroke-linejoin:miter;stroke:rgb(0%,0%,100%);stroke-opacity:1;stroke-miterlimit:10;" d="M 160.292969 141.058594 L 172.160156 135.570312 "/>
<path style=" stroke:none;fill-rule:nonzero;fill:rgb(100%,100%,100%);fill-opacity:1;" d="M 146.796875 155.3125 L 155.796875 155.3125 L 155.796875 168.3125 L 146.796875 168.3125 Z M 146.796875 155.3125 "/>
<g style="fill:rgb(100%,0%,0%);fill-opacity:1;">
  <use xlink:href="#glyph0-2" x="146.796875" y="165.213867"/>
</g>
<path style="fill:none;stroke-width:1.2;stroke-linecap:butt;stroke-linejoin:miter;stroke:rgb(0%,0%,100%);stroke-opacity:1;stroke-miterlimit:10;" d="M 172.160156 135.570312 L 182.851562 143.101562 "/>
<path style="fill:none;stroke-width:1.2;stroke-linecap:butt;stroke-linejoin:miter;stroke:rgb(0%,0%,0%);stroke-opacity:1;stroke-miterlimit:10;" d="M 182.851562 143.101562 L 193.539062 150.636719 "/>
<path style=" stroke:none;fill-rule:nonzero;fill:rgb(100%,100%,100%);fill-opacity:1;" d="M 164.160156 129.070312 L 181.160156 129.070312 L 181.160156 142.070312 L 164.160156 142.070312 Z M 164.160156 129.070312 "/>
<g style="fill:rgb(0%,0%,100%);fill-opacity:1;">
  <use xlink:href="#glyph0-1" x="164.160156" y="138.97168"/>
  <use xlink:href="#glyph0-3" x="172.143555" y="138.97168"/>
</g>
<path style="fill:none;stroke-width:1.2;stroke-linecap:butt;stroke-linejoin:miter;stroke:rgb(0%,0%,0%);stroke-opacity:1;stroke-miterlimit:10;" d="M 193.539062 150.636719 L 217.277344 139.65625 "/>
<path style="fill:none;stroke-width:1.2;stroke-linecap:butt;stroke-linejoin:miter;stroke:rgb(0%,0%,0%);stroke-opacity:1;stroke-miterlimit:10;" d="M 217.277344 139.65625 L 238.65625 154.722656 "/>
<path style="fill:none;stroke-width:1.2;stroke-linecap:butt;stroke-linejoin:miter;stroke:rgb(0%,0%,0%);stroke-opacity:1;stroke-miterlimit:10;" d="M 222.960938 136.132812 L 240.0625 148.183594 "/>
<path style="fill:none;stroke-width:1.2;stroke-linecap:butt;stroke-linejoin:miter;stroke:rgb(0%,0%,100%);stroke-opacity:1;stroke-miterlimit:10;" d="M 219.636719 113.609375 L 218.457031 126.632812 "/>
<path style="fill:none;stroke-width:1.2;stroke-linecap:butt;stroke-linejoin:miter;stroke:rgb(0%,0%,0%);stroke-opacity:1;stroke-miterlimit:10;" d="M 218.457031 126.632812 L 217.277344 139.65625 "/>
<path style="fill:none;stroke-width:1.2;stroke-linecap:butt;stroke-linejoin:miter;stroke:rgb(0%,0%,0%);stroke-opacity:1;stroke-miterlimit:10;" d="M 238.65625 154.722656 L 262.390625 143.742188 "/>
<path style="fill:none;stroke-width:1.2;stroke-linecap:butt;stroke-linejoin:miter;stroke:rgb(0%,0%,0%);stroke-opacity:1;stroke-miterlimit:10;" d="M 262.390625 143.742188 L 264.75 117.695312 "/>
<path style="fill:none;stroke-width:1.2;stroke-linecap:butt;stroke-linejoin:miter;stroke:rgb(0%,0%,0%);stroke-opacity:1;stroke-miterlimit:10;" d="M 256.5 140.582031 L 258.386719 119.742188 "/>
<path style="fill:none;stroke-width:1.2;stroke-linecap:butt;stroke-linejoin:miter;stroke:rgb(0%,0%,0%);stroke-opacity:1;stroke-miterlimit:10;" d="M 264.75 117.695312 L 243.371094 102.628906 "/>
<path style="fill:none;stroke-width:1.2;stroke-linecap:butt;stroke-linejoin:miter;stroke:rgb(0%,0%,0%);stroke-opacity:1;stroke-miterlimit:10;" d="M 243.371094 102.628906 L 231.503906 108.117188 "/>
<path style="fill:none;stroke-width:1.2;stroke-linecap:butt;stroke-linejoin:miter;stroke:rgb(0%,0%,100%);stroke-opacity:1;stroke-miterlimit:10;" d="M 231.503906 108.117188 L 219.636719 113.609375 "/>
<path style="fill:none;stroke-width:1.2;stroke-linecap:butt;stroke-linejoin:miter;stroke:rgb(0%,0%,0%);stroke-opacity:1;stroke-miterlimit:10;" d="M 243.582031 109.3125 L 234.085938 113.703125 "/>
<path style="fill:none;stroke-width:1.2;stroke-linecap:butt;stroke-linejoin:miter;stroke:rgb(0%,0%,100%);stroke-opacity:1;stroke-miterlimit:10;" d="M 234.085938 113.703125 L 224.59375 118.09375 "/>
<path style=" stroke:none;fill-rule:nonzero;fill:rgb(100%,100%,100%);fill-opacity:1;" d="M 215.636719 107.109375 L 223.636719 107.109375 L 223.636719 120.109375 L 215.636719 120.109375 Z M 215.636719 107.109375 "/>
<g style="fill:rgb(0%,0%,100%);fill-opacity:1;">
  <use xlink:href="#glyph0-1" x="215.636719" y="117.010742"/>
</g>
</g>
</svg>

<svg xmlns="http://www.w3.org/2000/svg" xmlns:xlink="http://www.w3.org/1999/xlink" width="300pt" height="300pt" viewBox="0 0 300 300"><defs><symbol overflow="visible"><path d="M.547 1.938V-7.75h5.5v9.688zm.625-.61h4.266v-8.47H1.171zm0 0"/></symbol><symbol overflow="visible" id="a"><path d="M1.078-8.016h1.47l3.546 6.704v-6.704h1.062V0H5.688L2.124-6.703V0H1.078zm0 0"/></symbol><symbol overflow="visible" id="b"><path d="M4.328-7.28c-.78 0-1.406.296-1.875.89-.46.585-.687 1.382-.687 2.39 0 1.012.226 1.813.687 2.406.47.586 1.094.875 1.875.875.79 0 1.414-.288 1.875-.874.457-.593.688-1.394.688-2.406 0-1.008-.23-1.805-.687-2.39-.46-.594-1.086-.89-1.875-.89zm0-.892c1.125 0 2.024.383 2.703 1.14C7.708-6.28 8.048-5.27 8.048-4c0 1.262-.34 2.273-1.016 3.03C6.353-.22 5.454.157 4.33.157S2.3-.22 1.625-.97c-.668-.75-1-1.757-1-3.03 0-1.27.332-2.28 1-3.03.676-.76 1.578-1.142 2.703-1.142zm0 0"/></symbol><symbol overflow="visible" id="c"><path d="M1.078-8.016h1.094v3.282H6.11v-3.282h1.077V0H6.11v-3.813H2.17V0H1.078zm0 0"/></symbol></defs><g><path fill="#fff" d="M0 0h300v300H0z"/><path d="M105.363 95.145m-1.883-2.336l-.683.784m-1.195-3.125l-1.375 1.57m-.504-3.907l-2.063 2.355m.18-4.69l-2.746 3.136m.867-5.477l-3.433 3.926m1.55-6.262l-4.116 4.708m2.24-7.047l-4.805 5.497m2.92-7.832l-5.487 6.278m3.887-8.27l-6.078 6.95" stroke="#000" stroke-miterlimit="10" fill="none"/><path d="M105.363 95.145l25.5-5.805" stroke-width="1.2" stroke="#000" stroke-miterlimit="10" fill="none"/><path d="M103.004 121.19l1.18-13.022" stroke-width="1.2" stroke="#00f" stroke-miterlimit="10" fill="none"/><path d="M104.184 108.168l1.18-13.023M130.863 89.34l13.403 22.457M126.918 94.738l10.723 17.97M144.266 111.797l-17.22 19.687M127.047 131.484l-12.024-5.144" stroke-width="1.2" stroke="#000" stroke-miterlimit="10" fill="none"/><path d="M115.023 126.34l-12.02-5.15" stroke-width="1.2" stroke="#00f" stroke-miterlimit="10" fill="none"/><path d="M127.047 131.484L110.27 152.07l8.058 4.5zm0 0"/><path d="M127.047 131.484l21.38 15.067" stroke-width="1.2" stroke="#000" stroke-miterlimit="10" fill="none"/><path d="M103.004 121.19l-11.23 6.705" stroke-width="1.2" stroke="#00f" stroke-miterlimit="10" fill="none"/><path d="M91.773 127.895l-11.23 6.7" stroke-width="1.2" stroke="#000" stroke-miterlimit="10" fill="none"/><path d="M99.004 114.69h8v13h-8zm0 0" fill="#fff"/><use xlink:href="#a" x="99.004" y="124.593" fill="#00f"/><path d="M77.47 134.637l.186 13.078" stroke-width="1.2" stroke="#000" stroke-miterlimit="10" fill="none"/><path d="M77.656 147.715l.188 13.074" stroke-width="1.2" stroke="#f00" stroke-miterlimit="10" fill="none"/><path d="M83.62 134.55l.19 13.075" stroke-width="1.2" stroke="#000" stroke-miterlimit="10" fill="none"/><path d="M83.81 147.625L84 160.7" stroke-width="1.2" stroke="#f00" stroke-miterlimit="10" fill="none"/><path d="M80.543 134.594l-11.418-6.375" stroke-width="1.2" stroke="#000" stroke-miterlimit="10" fill="none"/><path d="M69.125 128.22l-11.418-6.376" stroke-width="1.2" stroke="#f00" stroke-miterlimit="10" fill="none"/><path d="M76.922 154.246h9v13h-9zm0 0" fill="#fff"/><use xlink:href="#b" x="76.922" y="164.147" fill="#f00"/><path d="M57.707 121.844l-11.227 6.703" stroke-width="1.2" stroke="#f00" stroke-miterlimit="10" fill="none"/><path d="M46.48 128.547l-11.23 6.7" stroke-width="1.2" stroke="#000" stroke-miterlimit="10" fill="none"/><path d="M53.707 115.344h9v13h-9zm0 0" fill="#fff"/><use xlink:href="#b" x="53.707" y="125.245" fill="#f00"/><path d="M114.297 154.32l13.402 22.457M127.7 176.777l26.152-.375M130.402 182.895l20.922-.3M114.95 199.613l12.75-22.836M153.852 176.402l13.402 22.457M167.254 198.86l-12.75 22.835M160.605 198.145l-10.2 18.27M154.504 221.695l-26.152.38M128.352 222.074l-13.403-22.46M132.297 216.676l-10.723-17.97M145.383 147.023l1.187 7.63" stroke-width="1.2" stroke="#000" stroke-miterlimit="10" fill="none"/><path d="M146.57 154.652l1.184 7.63" stroke-width="1.2" stroke="#f00" stroke-miterlimit="10" fill="none"/><path d="M151.465 146.078l1.187 7.63" stroke-width="1.2" stroke="#000" stroke-miterlimit="10" fill="none"/><path d="M152.652 153.707l1.184 7.633" stroke-width="1.2" stroke="#f00" stroke-miterlimit="10" fill="none"/><path d="M148.426 146.55l11.867-5.49" stroke-width="1.2" stroke="#000" stroke-miterlimit="10" fill="none"/><path d="M160.293 141.06l11.867-5.49" stroke-width="1.2" stroke="#00f" stroke-miterlimit="10" fill="none"/><path d="M146.797 155.313h9v13h-9zm0 0" fill="#fff"/><use xlink:href="#b" x="146.797" y="165.214" fill="#f00"/><path d="M172.16 135.57l10.692 7.532" stroke-width="1.2" stroke="#00f" stroke-miterlimit="10" fill="none"/><path d="M182.852 143.102l10.687 7.535" stroke-width="1.2" stroke="#000" stroke-miterlimit="10" fill="none"/><path d="M164.16 129.07h17v13h-17zm0 0" fill="#fff"/><g fill="#00f"><use xlink:href="#a" x="164.16" y="138.972"/><use xlink:href="#c" x="172.144" y="138.972"/></g><path d="M193.54 150.637l23.737-10.98M217.277 139.656l21.38 15.067M222.96 136.133l17.102 12.05" stroke-width="1.2" stroke="#000" stroke-miterlimit="10" fill="none"/><path d="M219.637 113.61l-1.18 13.023" stroke-width="1.2" stroke="#00f" stroke-miterlimit="10" fill="none"/><path d="M218.457 126.633l-1.18 13.023M238.656 154.723l23.735-10.98M262.39 143.742l2.36-26.047M256.5 140.582l1.887-20.84M264.75 117.695l-21.38-15.066M243.37 102.63l-11.866 5.487" stroke-width="1.2" stroke="#000" stroke-miterlimit="10" fill="none"/><path d="M231.504 108.117l-11.867 5.492" stroke-width="1.2" stroke="#00f" stroke-miterlimit="10" fill="none"/><path d="M243.582 109.313l-9.496 4.39" stroke-width="1.2" stroke="#000" stroke-miterlimit="10" fill="none"/><path d="M234.086 113.703l-9.492 4.39" stroke-width="1.2" stroke="#00f" stroke-miterlimit="10" fill="none"/><path d="M215.637 107.11h8v13h-8zm0 0" fill="#fff"/><use xlink:href="#a" x="215.637" y="117.011" fill="#00f"/></g></svg>
